X:1
T:Pungente dardo che'l mio cor consumi
T:Jacquet de Berchem c.1505-1567
T:Pungente dardo che'l mio cor consumi
T:This work is licensed under CC0: creativecommons.org/publicdomain/zero/1.0/
T:Transcribed from 1539 Gardano edition of Arcadelt's Il primo libro di madrigali a 4 Original note values halved
T:This work is licensed under CC0: creativecommons.org/publicdomain/zero/1.0/
T:This work is licensed under CC0: creativecommons.org/publicdomain/zero/1.0/
T:This work is licensed under CC0: creativecommons.org/publicdomain/zero/1.0/
T:This work is licensed under CC0: creativecommons.org/publicdomain/zero/1.0/
T:This work is licensed under CC0: creativecommons.org/publicdomain/zero/1.0/
C:Jacquet de Berchem
C:c.1505-1567
Z:Anonymous
Z:This work is licensed under CC0: creativecommons.org/publicdomain/zero/1.0/
%%score [ 1 2 3 4 ]
L:1/8
M:4/4
K:C
V:1 treble nm="Piano" snm="Pno."
V:2 treble transpose=-12 nm="Piano" snm="Pno."
V:3 treble transpose=-12 nm="Piano" snm="Pno."
V:4 treble nm="Piano" snm="Pno."
V:1
"^Cantus" x8 |"^Instrument change" F4 F2 F2 | G4 A2 _B2- | B2 A2 G2 F2 | G4 F4 | z2 A2 A2 A2 | %6
w: |Pun- gen- te|dar- do che'l|_ mio cor con-|su- mi|con tal dol-|
 _B4 G2 G2 | G2 G2 A4 | F2 _B4 A2 | G2 F4 E2 | F4 z4 | z8 | z2 F2 G2 G2 | A2 F2 _B3 B | A2 A2 G4 | %15
w: cez- za, con|tal dol- cez-|za che'l mo-|rir mi pia-|ce||con tal dol-|cez- za che'l mo-|rir mi pia-|
"^b" _E2 G4 F2- | F2 =E2 F4 | z2 D2 D2 D2 | F4 E4 | z8 | z2 C2 D2 F2- | F2 E2 D4 | C2 E3 D D2- | %23
w: ce, mi pia-|* * ce|dol- ci fiam-|mel- le||che dei va-|* ghi lu-|mi u- * sci-|
 DC C4"^ยง" B,2 | C4 G4 | G2 G2 A4 | _B4 A2 G2- | GF F4 E2 | F3 E/D/ E2 c2 | c2 A2 _B2 c2 | A4 z4 | %31
w: |te do-|v'a- mor sue|stan- ze fa-||* * * ce che|fan de gl'oc- chi|miei|
 z8 | z8 | z2 E2 F2 G2 | E2 G2 A3 G | F2 E2 D4 | C4 z4 | z2 A2 _B4- | B2 A2 G2 F2- | F2 E2 F4 | %40
w: ||pel gran de-|sir che m'ar- d'e|mi dis- fa-|ce|che m'ar-|* d'e mi dis-|* fa- ce|
 A4 A2 A2 | A2 A2 _B4 | A2 A4 G2 | F4 E2 z C | D2 E2 F2 G2 | C2 z F G2 A2 | _B2 B2 G2 A2 | %47
w: por- ge- t'al|co- r'af- flit-|to quel che|chie- de o|mor- te pren- d'al-|men o mor- te|pren- d'al- men di|
 F2 F4 E2 | F3 E/D/ E2 z C | D2 E2 F2 G2 | C2 z F G2 A2 | _B2 B2 G2 A2 | F2 F4 E2 | F8 |] %54
w: me mer- ce-|* * * de o|mor- te pren- d'al-|men o mor- te|pren- d'al- men di|me mer- ce-|de.|
V:2
"^Alto" x8 |"^Instrument change" C,4 D,2 D,2 | D,3 E, F,2 F,2- | F,2 F,2 D,2 D,2- | D,2 C,2 D,4 | %5
w: |Pun- gen- te|dar- * do che'l|_ mio cor con-|* * su-|
 A,,4 z2 D,2 | D,2 D,2 E,4 | C,2 C,2 C,2 C,2 | D,2 _B,,2 C,3 C, | _B,,3 A,, G,,4 | %10
w: mi con|tal dol- cez-|za con tal dol-|cez- za che'l mo-|rir mi pia-|
 F,,2 _B,,2 B,,2 C,2 | D,2 A,,2 C,3 C, | C,2 D,2 _B,,4 | A,,2 C,2 _B,,C,D,E, | F,4 D,2 D,2 | %15
w: ce con tal dol-|cez- za che'l mo-|rir mi pia-|ce con tal _ _ dol-|cez- za che'l|
 C,2 _E,4 C,2 | C,4 A,,2 F,,2 | F,,2 F,,2 _B,,4 | A,,4 z2 C,2 | D,2 E,2 F,3 E, | D,2 C,2 z2 F,,2 | %21
w: mo- rir mi|pia- ce dol-|ci fiam- mel-|le che|de\_i va- ghi _|lu- mi che|
 G,,2 A,,2 _B,,2 B,,2 | A,,4 G,,4 | A,,4 G,,4 | z2 E,2 E,2 D,2 | E,4 F,4 | F,2 F,2 E,4 | D,4 C,4 | %28
w: de\_i va- ghi lu-|mi u-|sci- te|do- v'a- mor|sue stan-|ze sue stan-|ze fa-|
 A,,2 _B,,2 C,4 | F,2 F,2 D,2 E,2 | F,2 C,2 z2 G,,2 | C,2 D,2 A,,_B,,C,A,, | _B,,2 A,,4 G,,2 | %33
w: * * ce|che fan da gl'oc-|chi miei u-|scir duo fiu- * * *||
 A,,2 C,2 D,2 _B,,2 | C,2 E,2 F,3 E, | D,2 C,4"^ยง" B,,2 | C,4 A,,4 | D,3 C, _B,,3 C, | %38
w: mi pel gran de-|sir che m'ar- d'e|mi dis- fa-|ce che|m'ar- * * *|
 D,2 C,2 D,2 D,2 | C,4 A,,4 | z2 F,2 F,2 F,2 | F,2 F,2 F,4 | F,4 z4 | z2 F,,2 G,,2 A,,2 | %44
w: * d'e mi dis-|fa- ce|por- ge- t'al|co- r'af- flit-|to|o mor- te|
 _B,,2 C,2 A,,2 C,2 | C,2 D,2 E,2 F,2 | F,3 F, E,2 E,2 | D,4 C,4 | z2 F,,2 G,,2 A,,2 | %49
w: pren- d'al- men o|mor- te pren- d'al-|men di me mer-|ce- de|o mor- te|
 _B,,2 C,2 A,,2 C,2 | C,2 D,2 E,2 F,2 | F,3 F, E,2 E,2 | D,4 C,4 | C,8 |] %54
w: pren- d'al- men o|mor- te pren- d'al-|men di me mer-|ce- *|de.|
V:3
"^Tenor" x8 |"^Instrument change" A,,4 A,,2 A,,2 | _B,,4 C,2 D,2- | D,2 C,2 _B,,2 A,,2 | %4
w: |Pun- gen- te|dar- do che'l|_ mio cor con-|
 G,,4 A,,2 F,,2 | C,2 C,2 D,4 | _B,,2 G,,2 G,,2 G,,2 | C,4 F,,4 | z4 z2 C,2 | D,2 D,2 C,2 C,2 | %10
w: su- mi con|tal dol- cez-|za con tal dol-|cez- za|con|tal dol- cez- za,|
 z2 F,,2 G,,2 G,,2 | A,,2 F,,2 G,,3 G,, | A,,2 F,,4 E,,2 | F,,4 z2 _B,,2 | C,2 D,2 D,2 _B,,2 | %15
w: con tal dol-|cez- za che'l mo-|rir mi pia-|ce con|tal dol- cez- za|
 C,3 C, _B,,2 A,,2 | G,,4 F,,4- | F,,4 z2 F,,2 | F,,2 F,,2 A,,4 | G,,4 z2 F,,2 | A,,2 C,4 _B,,2 | %21
w: che'l mo- rir mi|pia- ce|_ dol-|ci fiam- mel-|le che|de\_i va- ghi|
 C,4 G,,4 | E,,3 D,, E,,F,, G,,2 | E,,2 F,,2 D,,4 | C,,2 C,2 C,2 _B,,2 | C,2 C,2 F,,4 | %26
w: lu- mi|u- * * * *|sci- * *|te do- v'a- mor|sue stan- ze|
 D,4 C,3 _B,, | A,,2 _B,,2 G,,4 | F,,4 G,,4 | z4 z2 C,2 | C,2 A,,2 _B,,2 C,2 | A,,3 G,, F,,2 E,,2 | %32
w: sue stan- *|* ze fa-|* ce|che|fan da gl'oc- chi|miei u- scir duo|
 F,,4 D,,4 | E,,2 A,,2 A,,2 _B,,2 | G,,2 G,,2 F,,3 G,, | _B,,2 C,2 G,,2 G,,G,, | %36
w: fiu- *|mi pel gran de-|sir che m'ar- d'e|mi dis- fa- ce che|
 A,,3 G,, F,,2 E,,2 | D,,C,, F,,4 E,,2 | F,,2 A,,2 _B,,3 A,, | G,,4 F,,4 | C,4 C,2 C,2 | %41
w: m'ar- d'e mi dis-|fa- * * *|* ce\_e mi dis-|fa- ce|por- ge- t'al|
 C,2 C,2 D,4 | C,2 F,,G,, A,,_B,, C,2- | C,2"^ยง" B,,2 C,4 | G,,4 z2 G,,2 | A,,2 A,,2 _B,,2 C,2 | %46
w: co- r'af- flit-|to quel _ _ _ _|_ che chie-|de o|mor- te pren- d'al-|
 D,4 C,4 | A,,2 _B,,2 G,,2 C,2- | C,2 =B,,2 C,4 | G,,4 z2 G,,2 | A,,2 A,,2 _B,,2 C,2 | D,4 C,4 | %52
w: men di|me mer- ce- *||de o|mor- te pren- d'al-|men di|
 A,,2 _B,,2 G,,4 | F,,8 |] %54
w: me mer- ce-|de.|
V:4
"^Bass" x8 |"^Instrument change" F,4 D,2 D,2 | G,4 F,2 _B,,2- | B,,2 F,2 G,2 D,2 |"^b" _E,4 D,4 | %5
w: |Pun- gen- te|dar- do che'l|_ mio cor con-|su- mi|
 z2 F,2 F,2 F,2 | G,4 C,4- | C,4 z4 | z8 | z2 _B,,2 C,2 C,2 | D,2 _B,,2 _E,4 | D,4 C,3 _B,, | %12
w: con tal dol-|cez- za|_||con tal dol-|cez- za che'l|mo- rir _|
 A,,2 _B,,2 G,,4 | F,,2 F,2 G,2 G,2 | A,2 F,2 G,2 G,2 | C,3 D, _E,2 F,2 | C,4 F,,4 | %17
w: _ mi pia-|ce con tal dol-|cez- za che'l mo-|rir _ _ mi|pia- ce|
 z2 _B,,2 B,,2 B,,2 | D,4 C,4 | z2 C,2 D,2 F,2- | F,2 E,2 D,4 | C,4 z2 G,,2 | A,,2 C,4 _B,,2 | %23
w: dol- ci fiam-|mel- le|che de\_i va-|* ghi lu-|mi che|va- ghi lu-|
 A,,2 F,,2 G,,4 | C,4 z4 | z4 z2 F,2 | _B,,2 B,,2 C,4 | D,2 _B,,2 C,4 | D,4 C,4 | z8 | %30
w: mi u- sci-|te|do-|v'a- mor sue|stan- ze fa-|* ce||
 F,2 F,2 D,2 E,2 | F,2 D,4 C,2 | D,2 D,2 _B,,4 | A,,2 A,,2 D,2 G,,2 | C,4 z4 | z8 | z2 C,2 D,3 C, | %37
w: che fan da gl'oc-|chi miei u-|scir duo fiu-|me pel gran de-|sir||che m'ar- d'e|
 _B,,2 A,,2 G,,4 | F,,2 F,2 _B,,2 B,,2 | C,4 F,,4 | F,4 F,2 F,2 | F,2 F,2 _B,,4 | F,2 F,4 E,2 | %43
w: mi dis- fa-|ce e mi dis-|fa- ce|por- ge- t'al|co- r'af- flit-|to quel che|
 D,4 C,4 | z2 C,2 D,2 E,2 | F,2 D,2 G,2 F,2 | _B,,4 C,4 | D,2 _B,,2 C,4 | D,4 C,4 | %49
w: chie- de|o mor- te|pren- d'al- men di|me mer-|ce- * *|* de,|
 z2 C,2 D,2 E,2 | F,2 D,2 G,2 F,2 | _B,,4 C,4 | D,2 _B,,2 C,4 | F,,8 |] %54
w: o mor- te|pren- d'al- men di|me mer-|ce- * *|de.|

